!!!COM: Mendelssohn, Felix
!!!CDT: 1809/02/03-1847/11/04
!!!OPR: Sechs vierstimmige Lieder
!!!OTL: Herbstlied
!!!OPS: Op. 48
!!!ONM: Nr. 6
!!!OMD: Andante
**kern	**text	**dynam	**kern	**text	**dynam	**kern	**text	**dynam	**kern	**text	**dynam
*part4	*part4	*part4	*part3	*part3	*part3	*part2	*part2	*part2	*part1	*part1	*part1
*staff4	*staff4	*	*staff3	*staff3	*	*staff2	*staff2	*	*staff1	*staff1	*
*I"Bass	*	*	*I"Tenor	*	*	*I"Alt	*	*	*I"Sopran	*	*
*clefF4	*	*	*clefGv2	*	*	*clefG2	*	*	*clefG2	*	*
*k[f#]	*	*	*k[f#]	*	*	*k[f#]	*	*	*k[f#]	*	*
*e:	*	*	*e:	*	*	*e:	*	*	*e:	*	*
*M3/8	*	*	*M3/8	*	*	*M3/8	*	*	*M3/8	*	*
*MM40	*	*	*MM40	*	*	*MM40	*	*	*MM40	*	*
=	=	=	=	=	=	=	=	=	=	=	=
16E	Hol-	p	16B	Hol-	p	16g	Hol-	p	16b	Hol-	p
16E	-der	.	16B	-der	.	16g	-der	.	16b	-der	.
=1	=1	=1	=1	=1	=1	=1	=1	=1	=1	=1	=1
8.E	Lenz,	.	8.c	Lenz,	.	8.g	Lenz,	.	8.b	Lenz,	.
16E	du	<	16c	du	<	16f#	du	<	16a	du	<
16E	bist	.	16c	bist	.	16f#	bist	.	16a	bist	.
16E	da-	[[	16c	da-	[[	16f#	da-	[[	16a	da-	[[
=2	=2	=2	=2	=2	=2	=2	=2	=2	=2	=2	=2
4E	-hin!	>	8c	-hin!	>	8a	-hin!	>	4dd#X	-hin!	sf
.	.	]]	8B	Nir-	]]	8g	Nir-	]]	.	.	.
16E	Nir-	.	8A	-gends,	.	8f#	-gends,	.	16dd#	Nir-	.
16E	-gends,	.	.	.	.	.	.	.	16dd#	-gends,	.
=3	=3	=3	=3	=3	=3	=3	=3	=3	=3	=3	=3
8E	nir-	.	(8G	nir-	.	8.e	nir-	.	8.ee	nir-	.
8G	-gends	.	16e)	.	.	.	.	.	.	.	.
.	.	.	16dn	-gends	.	16e	-gends	.	16b	-gends	.
16A	darfst	.	16c	darfst	.	16g	darfst	.	16b	darfst	.
16A	du	.	16c	du	.	16f#	du	.	16a	du	.
=4	=4	=4	=4	=4	=4	=4	=4	=4	=4	=4	=4
8B	blei-	.	8B	blei-	.	8e	blei-	.	8g	blei-	.
8B	-ben!	.	8B	-ben!	.	8d#X	-ben!	.	8f#	-ben!	.
16E	Wo	p	16B	Wo	p	16g	Wo	p	16b	Wo	p
16E	ich	.	16B	ich	.	16g	ich	.	16b	ich	.
=5	=5	=5	=5	=5	=5	=5	=5	=5	=5	=5	=5
8.E	sah	.	8.c	sah	.	8.g	sah	.	8.b	sah	.
16E	dein	<	16c	dein	<	16g	dein	<	16a	dein	<
*G:	*	*	*G:	*	*	*G:	*	*	*G:	*	*
16D	fro-	.	16c	fro-	.	16f#	fro-	.	16dd	fro-	.
16D	-hes	.	16c	-hes	.	16f#	-hes	.	16a	-hes	.
=6	=6	=6	=6	=6	=6	=6	=6	=6	=6	=6	=6
4G	Blüh'n,	.	4B	Blüh'n,	.	8g	Blüh'n,	.	4b	Blüh'n,	.
.	.	.	.	.	.	8g	braust	.	.	.	.
16G	braust	.	16B	braust	.	8f#	des	.	16dd	braust	.
16G	des	.	16B	des	.	.	.	.	16dd	des	.
=7	=7	=7	=7	=7	=7	=7	=7	=7	=7	=7	=7
8.G	Herb-	<	8.B	Herb-	<	8.e	Herb-	<	8.dd	Herb-	<
16G	-stes	.	16B	-stes	.	16e	-stes	.	16cc#X	-stes	.
16G	ban-	.	16B	ban-	.	16e	ban-	.	16ee	ban-	.
16F#	-ges	.	16B	-ges	.	16f#	-ges	.	16dd	-ges	.
=8	=8	=8	=8	=8	=8	=8	=8	=8	=8	=8	=8
*b:	*	*	*b:	*	*	*b:	*	*	*b:	*	*
8EL	Trei-	.	8B	Trei-	.	8g	Trei-	.	8dd	Trei-	.
8EJ	-ben,	.	8A#X	-ben,	.	8g	-ben,	.	8cc#X	-ben,	.
8r	.	.	8r	.	.	16.f#	braust	f	8r	.	.
.	.	.	.	.	.	32f#	des	.	.	.	.
=9	=9	=9	=9	=9	=9	=9	=9	=9	=9	=9	=9
8DL	braust	f	8BL	braust	f	(4.f#	Herb-	.	(8ff#L	braust	f
8C#XJ	.	.	8A#XJ	.	.	.	.	.	8eeJ)	.	.
8BB	des	.	8f#	des	.	.	.	.	8dd	des	.
=10	=10	=10	=10	=10	=10	=10	=10	=10	=10	=10	=10
(8EL	Herb-	.	8e	Herb-	.	8gL	.	.	(8cc#XL	Herb-	.
*G:	*	*	*G:	*	*	*G:	*	*	*G:	*	*
8F#J)	.	>	4d	-stes	>	8aJ)	.	>	8ccnJ)	.	>
8G	-stes	.	.	.	.	8g	-stes	.	8b	-stes	.
=11	=11	=11	=11	=11	=11	=11	=11	=11	=11	=11	=11
*b:	*	*	*b:	*	*	*b:	*	*	*b:	*	*
8G	ban-	.	8B	ban-	.	8e	ban-	.	4ee	ban-	.
8G	-ges	.	8B	-ges	.	8e	-ges	.	.	.	.
8r	.	.	8r	.	.	8r	.	.	(16eeL	-ges	.
.	.	.	.	.	.	.	.	.	16cc#XJ)	.	.
=12	=12	=12	=12	=12	=12	=12	=12	=12	=12	=12	=12
8F#	Trei-	p	8c#X	Trei-	p	8e	Trei-	p	8a#XL	Trei-	p
8BB	-ben.	.	8B	-ben.	.	8d	-ben.	.	8bJ	-ben.	.
8r	.	.	8r	.	.	8r	.	.	8r	.	.
=13	=13	=13	=13	=13	=13	=13	=13	=13	=13	=13	=13
4.r	.	.	4.r	.	.	4.r	.	.	16.f#	Wie	pp
.	.	.	.	.	.	.	.	.	32f#	der	.
.	.	.	.	.	.	.	.	.	16f#	Wind	.
.	.	.	.	.	.	.	.	.	16f#	so	<
.	.	.	.	.	.	.	.	.	16f#	trau-	.
.	.	.	.	.	.	.	.	.	16f#	-rig	[[
=14	=14	=14	=14	=14	=14	=14	=14	=14	=14	=14	=14
*C:	*	*	*C:	*	*	*C:	*	*	*C:	*	*
4.r	.	.	16.B	Wie	pp	16.d	Wie	pp	4.g	fuhr	.
.	.	.	32B	der	.	32d	der	.	.	.	.
.	.	.	16B	Wind	.	16d	Wind	.	.	.	.
.	.	.	16B	so	<	16d	so	<	.	.	.
.	.	.	16B	trau-	.	16fn	trau-	.	.	.	.
.	.	.	16B	-rig	[[	16f	-rig	[[	.	.	.
=15	=15	=15	=15	=15	=15	=15	=15	=15	=15	=15	=15
16.C	Wie	p	(8c	fuhr	.	(8e	fuhr	.	16.g	durch	.
32C	der	.	.	.	.	.	.	.	32g#X	den	<
*G:	*	*	*G:	*	*	*G:	*	*	*G:	*	*
16C	Wind	<	4e)	.	<	4g)	.	<	16a	Strauch,	.
16C	so	.	.	.	.	.	.	.	16a	als	.
16C#X	trau-	.	.	.	.	.	.	.	16a	ob	.
16C#	-rig	.	.	.	.	.	.	.	16a	er	.
=16	=16	=16	=16	=16	=16	=16	=16	=16	=16	=16	=16
4D	fuhr	.	16.G	durch	.	16.d	durch	.	8b	wei-	.
.	.	.	32G	den	.	32d	den	.	.	.	.
.	.	.	16F#	Strauch,	.	16d	Strauch,	.	4a	-ne,	.
.	.	.	16F#	als	.	16d	als	.	.	.	.
16D	durch	.	16A	ob	.	16f#	ob	.	.	.	.
16D	den	.	16A	er	.	16f#	er	.	.	.	.
=17	=17	=17	=17	=17	=17	=17	=17	=17	=17	=17	=17
*e:	*	*	*e:	*	*	*e:	*	*	*e:	*	*
8.D#X	Strauch,	f	(8AL	wei-	f	8f#	wei-	f	16.cc	durch	f
.	.	.	.	.	.	.	.	.	32cc	den	.
.	.	.	8.f#	.	.	4a	.	.	16cc	Strauch,	.
16D#	als	.	.	.	.	.	.	.	16b	als	.
16c	ob	.	.	.	.	.	.	.	16dd#X	ob	.
16c	er	.	16eJ)	.	.	.	.	.	16ee	er	.
=18	=18	=18	=18	=18	=18	=18	=18	=18	=18	=18	=18
8B	wei-	.	4d#X	-ne;	.	4a	-ne;	.	8ff#	wei-	.
8B	-ne;	.	.	.	.	.	.	.	8b	-ne;	.
16.BB	Ster-	p	16.d#	Ster-	p	16.a	Ster-	p	16.b	Ster-	p
32BB	-be-	.	32d#	-be-	.	32a	-be-	.	32b	-be-	.
=19	=19	=19	=19	=19	=19	=19	=19	=19	=19	=19	=19
8E	-seuf-	.	8eL	-seuf-	.	8g	-seuf-	.	8.b	-seuf-	.
8E	-zer	.	8BJ	-zer	.	8g	-zer	.	.	.	.
.	.	.	.	.	.	.	.	.	16gg	-zer	.
!LO:TX:a:i:t=sempre	!	!	!LO:TX:a:i:t=sempre	!	!	!LO:TX:a:i:t=sempre	!	!	!LO:TX:a:i:t=sempre	!	!
16.E	der	.	16.c	der	.	16.a	der	.	16ff#	der	.
.	.	.	.	.	.	.	.	.	16dd#X	Na-	.
32E	Na-	.	32c	Na-	.	32a	Na-	.	.	.	.
=20	=20	=20	=20	=20	=20	=20	=20	=20	=20	=20	=20
8E	-tur	p	8B	-tur	p	8g	-tur	p	4b	-tur	.
8BB	schau-	.	8B	schau-	.	8g	schau-	.	.	.	.
8D#X	-ern	.	8A	-ern	.	8f#	-ern	.	16.b	schau-	.
.	.	.	.	.	.	.	.	.	32b	-ern	.
=21	=21	=21	=21	=21	=21	=21	=21	=21	=21	=21	=21
16.E	durch	.	16.G	durch	.	16.e	durch	.	8.b	durch	.
32E	die	.	32B	die	.	32g	die	.	.	.	.
8E	wel-	.	8B	wel-	.	8g	wel-	.	.	.	.
.	.	.	.	.	.	.	.	.	16gg	die	.
8E	-ken	.	8c	-ken	.	8a	-ken	.	16ff#	wel-	.
.	.	.	.	.	.	.	.	.	16dd#X	-ken	.
=22	=22	=22	=22	=22	=22	=22	=22	=22	=22	=22	=22
8E	Hai-	.	8B	Hai-	.	8a	Hai-	.	8b	Hai-	.
8E	-ne,	.	8B	-ne,	.	8g	-ne,	.	8ee	-ne,	.
8r	.	.	8r	.	.	8r	.	.	16.g	durch	f
.	.	.	.	.	.	.	.	.	32a	die	.
=23	=23	=23	=23	=23	=23	=23	=23	=23	=23	=23	=23
8BL	durch	f	4d#X	durch	f	4f#	durch	f	[4.b	wel-	.
8AJ	.	.	.	.	.	.	.	.	.	.	.
8G#X	die	.	8dn	die	.	8fn	die	.	.	.	.
=24	=24	=24	=24	=24	=24	=24	=24	=24	=24	=24	=24
8A	wel-	.	8c	wel-	.	8e	wel-	.	16b]	.	.
.	.	.	.	.	.	.	.	.	16a	-ken,	.
8A	-ken	.	8c	-ken	.	8e	-ken	.	16b	durch	.
.	.	.	.	.	.	.	.	.	16cc	die	>
8r	.	.	8r	.	.	8r	.	.	16dd	wel-	.
.	.	.	.	.	.	.	.	.	16ee	-ken	.
=25	=25	=25	=25	=25	=25	=25	=25	=25	=25	=25	=25
8r	.	.	8r	.	.	8r	.	.	[4g	Hai-	p
4BB	Hai-	p	8BL	Hai-	p	8eL	Hai-	p	.	.	.
.	.	.	8AJ	.	.	8d#XJ	.	.	16gL]	.	.
.	.	.	.	.	.	.	.	.	16f#J	.	.
=26	=26	=26	=26	=26	=26	=26	=26	=26	=26	=26	=26
4E	-ne.	.	4G	-ne.	.	4e	-ne.	.	4e	-ne.	.
=||	=||	=||	=||	=||	=||	=||	=||	=||	=||	=||	=||
16E	Wie-	f	16B	Wie-	f	16g	Wie-	f	16b	Wie-	f
16E	-der	.	16B	-der	.	16g	-der	.	16b	-der	.
=27	=27	=27	=27	=27	=27	=27	=27	=27	=27	=27	=27
!	!	!	!	!	!	!	!	!	!LO:TX:a:i:t=espress.	!	!
8.E	ist,	.	8.c	ist,	.	8.g	ist,	.	8.b	ist,	.
16E	wie	<	16c	wie	<	16f#	wie	<	16a	wie	<
16E	bald,	.	16c	bald,	.	16f#	bald,	.	16a	bald,	.
16E	wie	[[	16c	wie	[[	16f#	wie	[[	16a	wie	[[
=28	=28	=28	=28	=28	=28	=28	=28	=28	=28	=28	=28
4E	bald!	sf	8c	bald!	sf	8a	bald!	sf	4dd#X	bald!	sf
.	.	.	8B	mir	.	8g	mir	.	.	.	.
16E	mir	.	8A	ein	.	8f#	ein	.	16dd#	mir	.
16E	ein	.	.	.	.	.	.	.	16dd#	ein	.
=29	=29	=29	=29	=29	=29	=29	=29	=29	=29	=29	=29
8E	Jahr	.	8.G	Jahr	.	8.e	Jahr	.	8.ee	Jahr	.
8GG	da-	.	.	.	.	.	.	.	.	.	.
!LO:TX:a:i:t=ritard.	!	!	!LO:TX:a:i:t=ritard.	!	!	!LO:TX:a:i:t=ritard.	!	!	!LO:TX:a:i:t=ritard.	!	!
.	.	.	16B	da-	p	16e	da-	p	16b	da-	p
16AA	-hin	.	16c	-hin	.	16g	-hin	.	16b	-hin	.
16AA	ge-	.	16c	ge-	.	16f#	ge-	.	16a	ge-	.
=30	=30	=30	=30	=30	=30	=30	=30	=30	=30	=30	=30
8BB'	-schwun-	p	8B'	-schwun-	.	8e'	-schwun-	.	8g'	-schwun-	.
8BB'	-den.	.	8B'	-den.	.	8d#X'	-den.	.	8f#'	-den.	.
8r;	.	.	8r;	.	.	8r;	.	.	8r;	.	.
=31	=31	=31	=31	=31	=31	=31	=31	=31	=31	=31	=31
!	!	!	!	!	!	!	!	!	!LO:TX:a:i:t=Tempo	!	!
4.r	.	.	4.r	.	.	4.r	.	.	16.f#	Fra-	pp
.	.	.	.	.	.	.	.	.	32f#	-gend	.
.	.	.	.	.	.	.	.	.	16f#	rauscht	.
.	.	.	.	.	.	.	.	.	16f#	es	<
.	.	.	.	.	.	.	.	.	16f#	durch	.
.	.	.	.	.	.	.	.	.	16f#	den	[[
=32	=32	=32	=32	=32	=32	=32	=32	=32	=32	=32	=32
*C:	*	*	*C:	*	*	*C:	*	*	*C:	*	*
4.r	.	.	16.B	Fra-	pp	16.dnX	Fra-	pp	4.g	Wald:	.
.	.	.	32B	-gend	.	32d	-gend	.	.	.	.
.	.	.	16B	rauscht	.	16d	rauscht	.	.	.	.
.	.	.	16B	es	<	16d	es	<	.	.	.
.	.	.	16B	durch	.	16fn	durch	.	.	.	.
.	.	.	16B	den	.	16f	den	.	.	.	.
=33	=33	=33	=33	=33	=33	=33	=33	=33	=33	=33	=33
4.r	.	.	(4c	Wald:	.	(8e	Wald:	.	16g	hat	.
.	.	.	.	.	.	.	.	.	16g#X	dein	.
*G:	*	*	*G:	*	*	*G:	*	*	*G:	*	*
.	.	.	.	.	<	4g)	.	<	16.a	Herz	<
.	.	.	.	.	.	.	.	.	32a	sein	.
.	.	.	8c#X)	.	.	.	.	.	16a	Glück	.
.	.	.	.	.	.	.	.	.	16a	ge-	.
=34	=34	=34	=34	=34	=34	=34	=34	=34	=34	=34	=34
4.r	.	.	16.d	hat	.	16.g	hat	.	8b	-fun-	.
.	.	.	32d	dein	.	32g	dein	.	.	.	.
.	.	.	16d	Herz	.	16f#	Herz	.	4a	-den?	.
.	.	.	16d	sein	.	16f#	sein	.	.	.	.
.	.	.	16d	Glück	.	16f#	Glück	.	.	.	.
.	.	.	16d	ge-	.	16f#	ge-	.	.	.	.
=35	=35	=35	=35	=35	=35	=35	=35	=35	=35	=35	=35
*e:	*	*	*e:	*	*	*e:	*	*	*e:	*	*
16.D#X	Fra-	f	8f#	-fun-	f	8a	-fun-	f	16.cc	Fra-	f
32D#	-gend	.	.	.	.	.	.	.	32cc	-gend	.
16D#	rauscht	.	8f#	-den?	.	8a	-den?	.	16cc	rauscht	.
16D#	es	.	.	.	.	.	.	.	16b	es	.
16c	durch	.	16f#	durch	.	16a	durch	.	16dd#X	durch	.
16c	den	.	16e	den	.	16a	den	.	16ee	den	.
=36	=36	=36	=36	=36	=36	=36	=36	=36	=36	=36	=36
4B	Wald:	.	4d#X	Wald:	.	4a	Wald:	.	4ff#	Wald:	.
16.B	hat	pp	16.B	hat	pp	16.b	hat	pp	16.b	hat	pp
32B	dein	.	32B	dein	.	32b	dein	.	32b	dein	.
=37	=37	=37	=37	=37	=37	=37	=37	=37	=37	=37	=37
8.c	Herz	.	8.c	Herz	.	8.cc	Herz	.	8.cc	Herz	.
16B	sein	.	16B	sein	.	16b	sein	.	16b	sein	.
16A	Glück	.	16A	Glück	.	16a	Glück	.	16a	Glück	.
16F#	ge-	.	16F#	ge-	.	16f#	ge-	.	16f#	ge-	.
=38	=38	=38	=38	=38	=38	=38	=38	=38	=38	=38	=38
4E	-fun-	.	4E	-fun-	.	4e	-fun-	.	4e	-fun-	.
8D#X	-den?	.	8D#X	-den?	.	8d#X	-den?	.	8d#X	-den?	.
=39	=39	=39	=39	=39	=39	=39	=39	=39	=39	=39	=39
4.r;	.	.	4.r;	.	.	4.r;	.	.	4.r;	.	.
=||40	=||40	=||40	=||40	=||40	=||40	=||40	=||40	=||40	=||40	=||40	=||40
*k[f#c#g#d#]	*	*	*k[f#c#g#d#]	*	*	*k[f#c#g#d#]	*	*	*k[f#c#g#d#]	*	*
*E:	*	*	*E:	*	*	*E:	*	*	*E:	*	*
*M2/2	*	*	*M2/2	*	*	*M2/2	*	*	*M2/2	*	*
*met(c|)	*	*	*met(c|)	*	*	*met(c|)	*	*	*met(c|)	*	*
*MM138	*	*	*MM138	*	*	*MM138	*	*	*MM138	*	*
!	!	!	!	!	!	!	!	!	!LO:TX:a:B:t=Allegro	!	!
4.E	Wal-	mf	4.B	Wal-	mf	4.e	Wal-	mf	4.g#	Wal-	mf
8E	-des-	.	8B	-des-	.	8e	-des-	.	8g#	-des-	.
=41	=41	=41	=41	=41	=41	=41	=41	=41	=41	=41	=41
4E	-rau-	.	4B	-rau-	.	4e	-rau-	.	4g#	-rau-	.
4E	-schen,	.	4G#	-schen,	.	4e	-schen,	.	4e	-schen,	.
4.E	wun-	sf	4.dn	wun-	sf	4.e	wun-	sf	4.b	wun-	sf
8E	-der-	.	8d	-der-	.	8e	-der-	.	8b	-der-	.
=42	=42	=42	=42	=42	=42	=42	=42	=42	=42	=42	=42
2E	-bar	<	2dn	-bar	<	2e	-bar	<	2b	-bar	<
4E	hast	.	4d	hast	.	4g#	hast	.	4cc#	hast	.
4E	du	.	4d	du	.	4g#	du	.	4b	du	.
=43	=43	=43	=43	=43	=43	=43	=43	=43	=43	=43	=43
4E	mir	.	4c#	mir	.	4a	mir	.	4a	mir	.
4E	das	.	4c#	das	.	4a	das	.	4cc#	das	.
4.E^	Herz	.	4.cn^	Herz	.	4.a^	Herz	.	4.ff#^	Herz	.
8E	ge-	.	8c	ge-	.	8a	ge-	.	8ee	ge-	.
=44	=44	=44	=44	=44	=44	=44	=44	=44	=44	=44	=44
4E	-trof-	.	4B	-trof-	.	4a	-trof-	.	4ee	-trof-	.
4E	-fen!	.	4B	-fen!	.	4a	-fen!	.	4dd#	-fen!	.
4.E	Treu-	f	4.e	Treu-	f	4.g#	Treu-	f	4.gg#	Treu-	f
8c#	-lich	.	8e	-lich	.	8g#	-lich	.	8ee	-lich	.
=45	=45	=45	=45	=45	=45	=45	=45	=45	=45	=45	=45
4.c#	bringt	.	4.e	bringt	.	4.g#	bringt	.	4.ee	bringt	.
8A	ein	.	8e	ein	.	8a	ein	.	8cc#	ein	.
4.A	je-	.	4.e	je-	.	4.a	je-	.	4.cc#	je-	.
8G#	-des	.	8B	-des	.	8e	-des	.	8b	-des	.
=46	=46	=46	=46	=46	=46	=46	=46	=46	=46	=46	=46
2G#	Jahr	.	2B	Jahr	.	2e	Jahr	.	2b	Jahr	.
4GG#	neu-	p	4B	neu-	p	4e	neu-	p	4b	neu-	p
4GG#	-es	.	4B	-es	.	4e	-es	.	4g#	-es	.
=47	=47	=47	=47	=47	=47	=47	=47	=47	=47	=47	=47
4.AA	Laub	.	4.c#	Laub	.	4.e	Laub	.	4.f#	Laub	.
8AA	wie	.	8c#	wie	.	8e	wie	.	8f#	wie	.
4BB	neu-	.	4F#	neu-	.	4e	neu-	.	4f#	neu-	.
4BB	-es	.	4F#	-es	.	4d#	-es	.	4a	-es	.
=48	=48	=48	=48	=48	=48	=48	=48	=48	=48	=48	=48
4E	Hof-	.	4F#	Hof-	.	4d#	Hof-	.	4a	Hof-	.
4E	-fen,	.	4E	-fen,	.	4e	-fen,	.	4g#	-fen,	.
*B:	*	*	*B:	*	*	*B:	*	*	*B:	*	*
4.E	treu-	f	4.e	treu-	f	4.g#	treu-	f	4.gg#	treu-	f
8c#	-lich	.	8e	-lich	.	8g#	-lich	.	8ee	-lich	.
=49	=49	=49	=49	=49	=49	=49	=49	=49	=49	=49	=49
4.c#	bringt	.	4.e	bringt	.	4.g#	bringt	.	4.ee	bringt	.
8A#X	ein	.	8e	ein	.	8cc#	ein	.	8cc#	ein	.
4.A#	je-	.	4.e	je-	.	4.cc#	je-	.	4.cc#	je-	.
8G#	-des	.	8c#	-des	.	8e	-des	.	8b	-des	.
=50	=50	=50	=50	=50	=50	=50	=50	=50	=50	=50	=50
2G#	Jahr	.	2c#	Jahr	.	2e	Jahr	.	2b	Jahr	.
4F#	neu-	p	4c#	neu-	p	4e	neu-	p	4a#X	neu-	p
4F#	-es	.	4B	-es	.	4e	-es	.	4b	-es	.
=51	=51	=51	=51	=51	=51	=51	=51	=51	=51	=51	=51
2F#	Laub,	.	2A#X	Laub,	.	2g#	Laub,	.	4.ee	Laub	.
.	.	.	.	.	.	.	.	.	8ee	wie	.
4F#	neu-	.	4A#	neu-	.	4f#	neu-	.	4dd#	neu-	.
4F#	-es	.	4A#	-es	.	4e	-es	.	4cc#	-es	.
=52	=52	=52	=52	=52	=52	=52	=52	=52	=52	=52	=52
2F#	Laub,	.	2B	Laub,	.	2d#	Laub,	.	4cc#	Hof-	.
.	.	.	.	.	.	.	.	.	4b	-fen,	.
4F#	neu-	<	4c#	neu-	<	4e	neu-	<	4a#X	neu-	<
4F#	-es	[[	4B	-es	[[	4e	-es	[[	4b	-es	[[
=53	=53	=53	=53	=53	=53	=53	=53	=53	=53	=53	=53
4.F#	Laub	sf	4.A#X	Laub	sf	4.g#	Laub	sf	4.ee	Laub	sf
8F#	wie	.	8A#	wie	.	8g#	wie	.	8ee	wie	.
4F#	neu-	.	4A#	neu-	.	4f#	neu-	.	4dd#	neu-	.
4F#	-es	.	4A#	-es	.	4e	-es	.	4cc#	-es	.
=54	=54	=54	=54	=54	=54	=54	=54	=54	=54	=54	=54
4F#	Hof-	.	4A#X	Hof-	.	4e	Hof-	.	4cc#	Hof-	.
4BB	-fen.	.	4B	-fen.	.	4d#	-fen.	.	4b	-fen.	.
2r	.	.	4.B	Wal-	<	2r	.	.	2r	.	.
.	.	.	8B	-des-	.	.	.	.	.	.	.
=55	=55	=55	=55	=55	=55	=55	=55	=55	=55	=55	=55
2r	.	.	1B	-rau-	<	2r	.	.	2r	.	.
*f#:	*	*	*f#:	*	*	*f#:	*	*	*f#:	*	*
4.G#	Wal-	<	.	.	.	4.e#X	Wal-	<	4.ddn	Wal-	<
8G#	-des-	.	.	.	[	8e#	-des-	.	8dd	-des-	.
=56	=56	=56	=56	=56	=56	=56	=56	=56	=56	=56	=56
1G#	-rau-	.	2B	-schen,	.	1e#X	-rau-	.	1ddn	-rau-	.
.	.	.	4.B	wun-	f	.	.	.	.	.	.
.	.	.	8B	-der-	.	.	.	.	.	.	.
=57	=57	=57	=57	=57	=57	=57	=57	=57	=57	=57	=57
2G#	-schen,	.	[1B	-bar	f	2e#X	-schen,	.	2ddn	-schen,	.
4.F#	wun-	f	.	.	.	4.f#	wun-	f	4.dd	wun-	f
8F#	-der-	.	.	.	.	8f#	-der-	.	8dd	-der-	.
=58	=58	=58	=58	=58	=58	=58	=58	=58	=58	=58	=58
2F#	-bar	.	2B]	.	.	2f#	-bar	.	2ddn	-bar	.
4E#X	hast	.	4G#	hast	.	4g#	hast	.	4cc#	hast	.
4E#	du	.	4G#	du	.	4g#	du	.	4b	du	.
=59	=59	=59	=59	=59	=59	=59	=59	=59	=59	=59	=59
4F#	mir	.	4c#	mir	.	4a	mir	.	4a	mir	.
4F#	das	.	4c#	das	.	4a	das	.	4cc#	das	.
*E:	*	*	*E:	*	*	*E:	*	*	*E:	*	*
4.F#^	Herz	.	4.cn^	Herz	.	4.a^	Herz	.	4.ff#^	Herz	.
8F#	ge-	.	8c	ge-	.	8a	ge-	.	8ee	ge-	.
=60	=60	=60	=60	=60	=60	=60	=60	=60	=60	=60	=60
4BB	-trof-	.	4B	-trof-	.	4a	-trof-	.	4ee	-trof-	.
4BB	-fen!	.	4B	-fen!	.	4a	-fen!	.	4dd#	-fen!	.
4.E	Treu-	f	4.B	Treu-	f	4.g#	Treu-	f	4.gg#	Treu-	f
8c#	-lich	.	8e	-lich	.	8g#	-lich	.	8ee	-lich	.
=61	=61	=61	=61	=61	=61	=61	=61	=61	=61	=61	=61
4.c#	bringt	.	4.e	bringt	.	4.g#	bringt	.	4.ee	bringt	.
8A	ein	.	8e	ein	.	8a	ein	.	8cc#	ein	.
4.A	je-	.	4.e	je-	.	4.a	je-	.	4.cc#	je-	.
8G#	-des	.	8B	-des	.	8e	-des	.	8b	-des	.
=62	=62	=62	=62	=62	=62	=62	=62	=62	=62	=62	=62
2G#	Jahr	.	2B	Jahr	.	2e	Jahr	.	2b	Jahr	.
4GG#	neu-	p	4B	neu-	p	4e	neu-	p	4b	neu-	p
4GG#	-es	.	4B	-es	.	4e	-es	.	4g#	-es	.
=63	=63	=63	=63	=63	=63	=63	=63	=63	=63	=63	=63
4.AA	Laub	.	4.c#	Laub	.	4.e	Laub	.	4.f#	Laub	.
8AA	wie	.	8c#	wie	.	8e	wie	.	8f#	wie	.
4BB	neu-	.	4F#	neu-	.	4e	neu-	.	4f#	neu-	.
4BB	-es	.	4F#	-es	.	4d#	-es	.	4a	-es	.
=64	=64	=64	=64	=64	=64	=64	=64	=64	=64	=64	=64
4C#	Hof-	.	4F#	Hof-	.	4d#	Hof-	.	4a	Hof-	.
4C#	-fen,	.	4E	-fen,	.	4e	-fen,	.	4g#	-fen,	.
2G#	wie	.	2B	wie	.	2e	wie	.	4b	neu-	.
.	.	.	.	.	.	.	.	.	4g#	-es	.
=65	=65	=65	=65	=65	=65	=65	=65	=65	=65	=65	=65
4.A	neu-	<	4.c#	neu-	<	4.e	neu-	<	4.f#	Laub	<
8A	-es,	.	8c#	-es,	.	8e	-es,	.	8f#	wie	.
4A	neu-	.	4c#	neu-	.	4e	neu-	.	4f#	neu-	.
4A	-es	.	4c#	-es	.	4f#	-es	.	4ee	-es	.
=66	=66	=66	=66	=66	=66	=66	=66	=66	=66	=66	=66
2A	Hof-	f	2B	Hof-	f	2f#	Hof-	f	4ee	Hof-	f
.	.	.	.	.	.	.	.	.	2dd#	-fen,	.
2A	-fen,	.	2d#	-fen,	.	2f#	-fen,	.	.	.	.
.	.	.	.	.	.	.	.	.	4b	wie	.
=67	=67	=67	=67	=67	=67	=67	=67	=67	=67	=67	=67
2r	.	.	2r	.	.	2r	.	.	[1gg#	neu-	.
2G#	wie	f	(4e	wie	f	(4b	wie	f	.	.	.
.	.	.	4d#)	.	.	4b#X)	.	.	.	.	.
=68	=68	=68	=68	=68	=68	=68	=68	=68	=68	=68	=68
2.A	neu-	.	(2c#	neu-	.	2.cc#	neu-	.	(4gg#]	.	.
.	.	.	.	.	.	.	.	.	4ff#	.	.
.	.	.	4e)	.	.	.	.	.	4ee)	.	.
4A	-es	.	4e	-es	.	4a	-es	.	4cc#	-es	.
=69	=69	=69	=69	=69	=69	=69	=69	=69	=69	=69	=69
(2B	Hof-	.	(2e	Hof-	.	(2.g#	Hof-	.	(2.b	Hof-	.
2B#X)	.	.	2d#)	.	.	.	.	.	.	.	.
.	.	.	.	.	.	4f#)	.	.	4a)	.	.
=70	=70	=70	=70	=70	=70	=70	=70	=70	=70	=70	=70
2c#	-fen,	.	2e	-fen,	.	2e	-fen,	.	2g#	-fen,	.
2r	.	.	2r	.	.	2r	.	.	4cc#	neu-	f
.	.	.	.	.	.	.	.	.	4ee	-es	.
=71	=71	=71	=71	=71	=71	=71	=71	=71	=71	=71	=71
2r	.	.	2r	.	.	2r	.	.	(2.gg#	Laub	.
2G#	wie	f	(4e	wie	f	2b#X	wie	f	.	.	.
.	.	.	4d#)	.	.	.	.	.	4ff#)	.	.
=72	=72	=72	=72	=72	=72	=72	=72	=72	=72	=72	=72
(4c#	neu-	.	(4c#	neu-	.	(4cc#	neu-	.	(4ee	wie	>
4F#	.	>	4d#	.	>	4a	.	>	4cc#)	.	.
4G#)	.	.	4e)	.	.	4g#)	.	.	4b	neu-	.
4A	-es	.	4c#	-es	.	4f#	-es	.	4a	-es	.
=73	=73	=73	=73	=73	=73	=73	=73	=73	=73	=73	=73
(2B	Hof-	.	(2.B	Hof-	.	(2e	Hof-	.	(2.g#	Hof-	.
2BB)	.	.	.	.	.	2d#)	.	.	.	.	.
.	.	.	4A)	.	.	.	.	.	4f#)	.	.
=74	=74	=74	=74	=74	=74	=74	=74	=74	=74	=74	=74
2E	-fen,	.	2G#	-fen,	.	2e	-fen.	.	2e	-fen.	.
2r	.	.	4.B	neu-	p	4d#	Treu-	p	4f#	Treu-	p
.	.	.	.	.	.	4e	-lich	.	4g#	-lich	.
.	.	.	8B	-es	.	.	.	.	.	.	.
=75	=75	=75	=75	=75	=75	=75	=75	=75	=75	=75	=75
2r	.	.	1B	Laub,	.	4f#	bringt	.	4a	bringt	.
.	.	.	.	.	.	4a	ein	.	4cc#	ein	.
4.BB	neu-	p	.	.	.	4g#	je-	.	4b	je-	.
.	.	.	.	.	.	4f#	-des	.	4a	-des	.
8BB	-es	.	.	.	.	.	.	.	.	.	.
=76	=76	=76	=76	=76	=76	=76	=76	=76	=76	=76	=76
1BB	Laub,	.	2r	.	.	2e	Jahr,	.	2g#	Jahr,	.
.	.	.	4.B	neu-	.	4d#	treu-	.	4f#	treu-	.
.	.	.	.	.	.	4e	-lich	.	4g#	-lich	.
.	.	.	8B	-es	.	.	.	.	.	.	.
=77	=77	=77	=77	=77	=77	=77	=77	=77	=77	=77	=77
4r	.	.	1B	Hof-	.	4f#	bringt	.	4a	bringt	.
4BB	wie	.	.	.	.	4a	ein	.	4cc#	ein	.
4C#	neu-	.	.	.	.	4g#	je-	.	4b	je-	.
4D#	-es	.	.	.	.	4f#	-des	.	4a	-des	.
=78	=78	=78	=78	=78	=78	=78	=78	=78	=78	=78	=78
4D#	Hof-	.	2B	-fen,	.	(4f#	Jahr	.	(4a	Jahr	.
4E	-fen,	.	.	.	.	4e)	.	.	4g#)	.	.
2r	.	.	2r	.	.	2r	.	.	4.ee	neu-	f
.	.	.	.	.	.	.	.	.	8b	-es	.
=79	=79	=79	=79	=79	=79	=79	=79	=79	=79	=79	=79
2r	.	.	2r	.	.	2r	.	.	1b	Laub,	.
4.D#	neu-	f	4.f#	neu-	f	4.a	neu-	f	.	.	.
8E	-es	.	8e	-es	.	8g#	-es	.	.	.	.
=80	=80	=80	=80	=80	=80	=80	=80	=80	=80	=80	=80
1E	Laub,	.	1e	Laub,	.	1g#	Laub,	.	2r	.	.
.	.	.	.	.	.	.	.	.	4.ee	neu-	f
.	.	.	.	.	.	.	.	.	8b	-es	.
=81	=81	=81	=81	=81	=81	=81	=81	=81	=81	=81	=81
2r	.	.	2r	.	.	2r	.	.	[1b	Laub	.
4.D#	neu-	>	4.A	neu-	>	4.f#	neu-	>	.	.	>
8E	-es	.	8G#	-es	.	8e	-es	.	.	.	.
=82	=82	=82	=82	=82	=82	=82	=82	=82	=82	=82	=82
2E	Laub	.	2G#	Laub	.	2e	Laub	.	2b]	.	.
2BB#X	wie	p	2F#	wie	p	2d#	wie	p	2g#	wie	p
=83	=83	=83	=83	=83	=83	=83	=83	=83	=83	=83	=83
2C#	neu-	.	2E	neu-	.	2c#	neu-	p	2g#	neu-	.
2AA	-es	.	2F#	-es	.	2c#	-es	.	(4b	-es	.
.	.	.	.	.	.	.	.	.	4a)	.	.
=84	=84	=84	=84	=84	=84	=84	=84	=84	=84	=84	=84
[1BB	Hof-	.	(1B	Hof-	.	(1e	Hof-	.	[1g#	Hof-	.
=85	=85	=85	=85	=85	=85	=85	=85	=85	=85	=85	=85
1BB]	.	.	1A)	.	.	1d#)	.	.	2g#]	.	.
.	.	.	.	.	.	.	.	.	2f#	.	.
=86	=86	=86	=86	=86	=86	=86	=86	=86	=86	=86	=86
1EE; 1E	-fen.	.	1G#;	-fen.	.	1e;	-fen.	.	1e;	-fen.	.
==	==	==	==	==	==	==	==	==	==	==	==
*-	*-	*-	*-	*-	*-	*-	*-	*-	*-	*-	*-
!!!system-decoration: ([s1,s2,s3,s4])
!!!RDF**kern: i = editorial accidental
!!!AGN: Choral
!!!YOR: https://mdz-nbn-resolving.de/details:bsb11328486
!!!YOO: München, Bayerische Staatsbibliothek
!!!URL-scan: https://www.digitale-sammlungen.de/de/view/bsb11328486?page=13
!!!EED: Wolfgang Drescher
!!!END: 2024/11/12
!!!ENC: Wolfgang Drescher
!!!EEV: 2024/11/13
!!!title: @{OPS} @{ONM}. @{OTL}